svg/remove-alarm.svg

<?xml version="1.0" encoding="UTF-8"?>
<svg xmlns="http://www.w3.org/2000/svg" xmlns:xlink="http://www.w3.org/1999/xlink" width="32" height="32" viewBox="0 0 32 32">
<path fill-rule="nonzero" fill="rgb(0%, 0%, 0%)" fill-opacity="1" d="M 16 0 C 14.585938 0 13.441406 1.148438 13.441406 2.5625 C 13.441406 3.976562 14.589844 5.121094 16.003906 5.121094 C 17.417969 5.121094 18.5625 3.972656 18.5625 2.558594 C 18.5625 1.144531 17.414062 0 16 0 M 12.398438 3.898438 C 9.476562 5.152344 7.679688 7.972656 7.679688 11.519531 C 7.679688 18.558594 5.246094 20.328125 3.800781 21.378906 C 3.15625 21.84375 2.558594 22.277344 2.558594 23.039062 C 2.558594 25.734375 6.578125 26.878906 16 26.878906 C 25.421875 26.878906 29.441406 25.734375 29.441406 23.039062 C 29.441406 22.277344 28.84375 21.84375 28.199219 21.378906 C 26.753906 20.328125 24.320312 18.558594 24.320312 11.519531 C 24.320312 7.960938 22.527344 5.148438 19.601562 3.898438 C 19.035156 5.398438 17.601562 6.394531 16 6.398438 C 14.398438 6.390625 12.964844 5.398438 12.398438 3.898438 M 12.160156 28.078125 L 12.160156 28.160156 C 12.164062 30.28125 13.878906 31.996094 16 32 C 18.121094 31.996094 19.835938 30.28125 19.839844 28.160156 L 19.839844 28.078125 C 17.28125 28.1875 14.71875 28.1875 12.160156 28.078125 "/>
</svg>

<svg role="img" viewBox="0 0 32 32" xmlns="http://www.w3.org/2000/svg"><path d="M16 0a2.56 2.56 0 1 0 .004 5.121A2.56 2.56 0 0 0 16 0m-3.602 3.898C9.477 5.152 7.68 7.973 7.68 11.52c0 7.039-2.434 8.808-3.88 9.859-.644.465-1.241.898-1.241 1.66 0 2.695 4.02 3.84 13.441 3.84s13.441-1.145 13.441-3.84c0-.762-.597-1.195-1.242-1.66-1.445-1.05-3.879-2.82-3.879-9.86 0-3.558-1.793-6.37-4.718-7.62-.567 1.5-2 2.496-3.602 2.5a3.87 3.87 0 0 1-3.602-2.5m-.238 24.18v.081A3.844 3.844 0 0 0 16 32a3.844 3.844 0 0 0 3.84-3.84v-.082q-3.84.165-7.68 0"/></svg>
